img/Article/Dev-Think-4Ways2AIWorld/tobenotLLM.svg

<svg xmlns="http://www.w3.org/2000/svg" width="1190pt" height="596" viewBox="0 0 1189.87 447.4"><g class="graph" transform="translate(4 443.4)"><path fill="#fff" d="M-4 4v-447.4h1189.87V4H-4z"/><text text-anchor="middle" x="590.94" y="-421" font-family="Times,serif" font-size="16">TobenotLLMGameplay 核心组件概览</text><g class="cluster"><path fill="#d3d3d3" stroke="#d3d3d3" d="M8-231.2v-106.4h682v106.4H8z"/><text text-anchor="middle" x="349" y="-319.2" font-family="Times,serif" font-size="16">人物系统</text></g><g class="cluster"><path fill="#d3d3d3" stroke="#d3d3d3" d="M698-231.2v-106.4h366v106.4H698z"/><text text-anchor="middle" x="881" y="-319.2" font-family="Times,serif" font-size="16">事件系统</text></g><g class="cluster"><path fill="#d3d3d3" stroke="#d3d3d3" d="M932-96v-106.4h128V-96H932z"/><text text-anchor="middle" x="996" y="-184" font-family="Times,serif" font-size="16">场景系统</text></g><g class="cluster"><path fill="#d3d3d3" stroke="#d3d3d3" d="M467-96v-106.4h336V-96H467z"/><text text-anchor="middle" x="635" y="-184" font-family="Times,serif" font-size="16">外围系统</text></g><g class="node"><path fill="#fff" stroke="#000" d="M294.02-275.2h-88.04c-6 0-12 6-12 12v12c0 6 6 12 12 12h88.04c6 0 12-6 12-12v-12c0-6-6-12-12-12"/><text text-anchor="middle" x="250" y="-253" font-family="Times,serif" font-size="14">Agent (接口, 组件)</text></g><g class="node"><path fill="#fff" stroke="#000" d="M797.94-275.2h-79.88c-6 0-12 6-12 12v12c0 6 6 12 12 12h79.88c6 0 12-6 12-12v-12c0-6-6-12-12-12"/><text text-anchor="middle" x="758" y="-253" font-family="Times,serif" font-size="14">事件动态生成/加载</text></g><g class="edge"><path fill="none" stroke="#000" d="M259.82-275.64c10.8-18.1 30.02-44.62 55.18-56.06 38.34-17.43 340.73-17.58 379 0 20.85 9.58 37.47 29.68 48.54 46.59"/><path stroke="#000" d="m745.33-287.26 2.28 10.34-8.24-6.66 5.96-3.68z"/><text text-anchor="middle" x="506" y="-348.3" font-family="Times,serif" font-size="9">参与/触发事件</text></g><g class="node"><path fill="#fff" stroke="#000" d="M486.13-275.2H335.87c-6 0-12 6-12 12v12c0 6 6 12 12 12h150.26c6 0 12-6 12-12v-12c0-6-6-12-12-12"/><text text-anchor="middle" x="411" y="-253" font-family="Times,serif" font-size="14">通信 (Shout, Dialogue, Chat)</text></g><g class="node"><path fill="#fff" stroke="#000" d="M555.5-140h-69c-6 0-12 6-12 12v12c0 6 6 12 12 12h69c6 0 12-6 12-12v-12c0-6-6-12-12-12"/><text text-anchor="middle" x="521" y="-117.8" font-family="Times,serif" font-size="14">GUID存档系统</text></g><g class="edge"><path fill="none" stroke="#000" d="M427.67-239.16c9.95 10.38 22.68 24.06 33.33 36.76 14.34 17.1 29.49 37.16 40.98 52.84"/><path stroke="#000" d="m504.68-151.8 3.05 10.15-8.72-6.03 5.67-4.12z"/><text text-anchor="middle" x="473.41" y="-213.1" font-family="Times,serif" font-size="9">保存对话历史</text></g><g class="node"><path fill="gold" stroke="#000" d="M642.02-52c0-2.87-58.28-5.2-130.02-5.2-71.74 0-130.02 2.33-130.02 5.2v46.8C381.98-2.33 440.26 0 512 0c71.74 0 130.02-2.33 130.02-5.2V-52"/><path fill="none" stroke="#000" d="M642.02-52c0 2.87-58.28 5.2-130.02 5.2-71.74 0-130.02-2.33-130.02-5.2"/><text text-anchor="middle" x="512" y="-32.8" font-family="Times,serif" font-size="14">LLM API 插件</text><text text-anchor="middle" x="512" y="-16" font-family="Times,serif" font-size="14">(增强型OpenAI API: C++, 取消, Embedding)</text></g><g class="edge"><path fill="none" stroke="#000" d="M406.94-239c-6.29 30.81-15.25 96.57 10.06 143 6.77 12.41 16.97 23 28.21 31.85"/><path stroke="#000" d="m447.18-67.05 6.01 8.73-10.14-3.08 4.13-5.65z"/><text text-anchor="middle" x="440" y="-119.3" font-family="Times,serif" font-size="9">调用LLM对话</text></g><g class="node"><path fill="#fff" stroke="#000" d="M163.74-275.2H28.26c-6 0-12 6-12 12v12c0 6 6 12 12 12h135.48c6 0 12-6 12-12v-12c0-6-6-12-12-12"/><text text-anchor="middle" x="96" y="-253" font-family="Times,serif" font-size="14">功能调用 (FunctionInvoke)</text></g><g class="edge"><path fill="none" stroke="#000" d="M120.39-238.79C164.68-207.64 261.95-141.38 350-96c24 12.37 50.84 24.14 75.67 34.25"/><path stroke="#000" d="m426.8-65.07 7.97 6.98-10.59-.48 2.62-6.5z"/><text text-anchor="middle" x="373" y="-119.3" font-family="Times,serif" font-size="9">可能调用LLM</text></g><g class="node"><path fill="#fff" stroke="#000" d="M584.08-275.2h-56.16c-6 0-12 6-12 12v12c0 6 6 12 12 12h56.16c6 0 12-6 12-12v-12c0-6-6-12-12-12"/><text text-anchor="middle" x="556" y="-253" font-family="Times,serif" font-size="14">交互物 &amp; UI</text></g><g class="node"><path fill="#fff" stroke="#000" d="M670.25-275.2h-44.5c-6 0-12 6-12 12v12c0 6 6 12 12 12h44.5c6 0 12-6 12-12v-12c0-6-6-12-12-12"/><text text-anchor="middle" x="648" y="-253" font-family="Times,serif" font-size="14">通用叙述者</text></g><g class="node"><path fill="#fff" stroke="#000" d="M1043.91-275.2h-95.82c-6 0-12 6-12 12v12c0 6 6 12 12 12h95.82c6 0 12-6 12-12v-12c0-6-6-12-12-12"/><text text-anchor="middle" x="996" y="-253" font-family="Times,serif" font-size="14">事件触发 (接近, 剧情)</text></g><g class="edge"><path fill="none" stroke="#000" d="M985.29-275.67C973.6-293.8 953.01-320.34 927-331.7c-62.31-27.22-550.1-28.14-612 0-21.03 9.56-37.91 29.66-49.2 46.57"/><path stroke="#000" d="m268.92-283.51-8.3 6.59 2.38-10.32 5.92 3.73z"/><text text-anchor="middle" x="725" y="-348.3" font-family="Times,serif" font-size="9">影响Agent</text></g><g class="node"><path fill="#fff" stroke="#000" d="M1040.41-140h-88.82c-6 0-12 6-12 12v12c0 6 6 12 12 12h88.82c6 0 12-6 12-12v-12c0-6-6-12-12-12"/><text text-anchor="middle" x="996" y="-117.8" font-family="Times,serif" font-size="14">位点模块 (区域表示)</text></g><g class="edge"><path fill="none" stroke="#000" d="M996-238.79v87.15"/><path stroke="#000" d="m999.5-151.93-3.5 10-3.5-10h7z"/><text text-anchor="middle" x="1016.25" y="-213.1" font-family="Times,serif" font-size="9">基于位置触发</text></g><g class="node"><path fill="#fff" stroke="#000" d="M905.75-275.2h-65.5c-6 0-12 6-12 12v12c0 6 6 12 12 12h65.5c6 0 12-6 12-12v-12c0-6-6-12-12-12"/><text text-anchor="middle" x="873" y="-253" font-family="Times,serif" font-size="14">网状叙事子系统</text></g><g class="edge"><path fill="none" stroke="#000" d="M839.63-238.78c-6.69 2.93-13.77 5.64-20.63 7.58-104.65 29.61-149.8-27.25-243 28.8-19.85 11.94-34.29 34.11-43.38 51.99"/><path stroke="#000" d="m535.88-149.11-7.46 7.52 1.14-10.53 6.32 3.01z"/><text text-anchor="middle" x="632.86" y="-213.1" font-family="Times,serif" font-size="9">读写事件记录</text></g><g class="edge"><path fill="none" stroke="#000" d="M871.07-238.93C866.43-205.85 851.49-133.53 807-96c-24.04 20.28-90.2 36.12-153.79 47.24"/><path stroke="#000" d="m654.15-45.37-10.45-1.77 9.27-5.13 1.18 6.9z"/><text text-anchor="middle" x="893.55" y="-119.3" font-family="Times,serif" font-size="9">调用LLM分析标签</text></g><g class="node"><path fill="#fff" stroke="#000" d="M631-140h-34c-6 0-12 6-12 12v12c0 6 6 12 12 12h34c6 0 12-6 12-12v-12c0-6-6-12-12-12"/><text text-anchor="middle" x="614" y="-117.8" font-family="Times,serif" font-size="14">生图模块</text></g><g class="edge"><path fill="none" stroke="#000" d="M594.81-103.81c-12.15 10.9-28.32 25.39-43.15 38.67"/><path stroke="#000" d="m554.04-62.57-9.79 4.07 5.12-9.28 4.67 5.21z"/><text text-anchor="middle" x="599.64" y="-77.9" font-family="Times,serif" font-size="9">调用图像生成API</text></g><g class="node"><path fill="#fff" stroke="#000" d="M707-140h-34c-6 0-12 6-12 12v12c0 6 6 12 12 12h34c6 0 12-6 12-12v-12c0-6-6-12-12-12"/><text text-anchor="middle" x="690" y="-117.8" font-family="Times,serif" font-size="14">网络配置</text></g><g class="node"><path fill="#fff" stroke="#000" d="M783-140h-34c-6 0-12 6-12 12v12c0 6 6 12 12 12h34c6 0 12-6 12-12v-12c0-6-6-12-12-12"/><text text-anchor="middle" x="766" y="-117.8" font-family="Times,serif" font-size="14">语言配置</text></g><g class="node"><path fill="gray" stroke="#000" d="M1181.87-275.2h-103.74l-4 4v32h103.74l4-4v-32z"/><path fill="none" stroke="#000" d="M1177.87-271.2h-103.74M1177.87-271.2v32M1177.87-271.2l4-4"/><text text-anchor="middle" x="1128" y="-253" font-family="Times,serif" font-size="14">Unreal Engine 5</text></g></g></svg>

<svg xmlns="http://www.w3.org/2000/svg" xmlns:xlink="http://www.w3.org/1999/xlink" width="1190pt" height="447pt" viewBox="0.00 0.00 1189.87 447.40">
<g id="graph0" class="graph" transform="scale(1 1) rotate(0) translate(4 443.4)">
<title>TobenotLLMGameplay_Architecture</title>
<polygon fill="white" stroke="none" points="-4,4 -4,-443.4 1185.87,-443.4 1185.87,4 -4,4"/>
<text text-anchor="middle" x="590.94" y="-421" font-family="Times,serif" font-size="16.00">TobenotLLMGameplay 核心组件概览</text>
<g id="clust1" class="cluster">
<title>cluster_character</title>
<polygon fill="lightgrey" stroke="lightgrey" points="8,-231.2 8,-337.6 690,-337.6 690,-231.2 8,-231.2"/>
<text text-anchor="middle" x="349" y="-319.2" font-family="Times,serif" font-size="16.00">人物系统</text>
</g>
<g id="clust2" class="cluster">
<title>cluster_event</title>
<polygon fill="lightgrey" stroke="lightgrey" points="698,-231.2 698,-337.6 1064,-337.6 1064,-231.2 698,-231.2"/>
<text text-anchor="middle" x="881" y="-319.2" font-family="Times,serif" font-size="16.00">事件系统</text>
</g>
<g id="clust3" class="cluster">
<title>cluster_scene</title>
<polygon fill="lightgrey" stroke="lightgrey" points="932,-96 932,-202.4 1060,-202.4 1060,-96 932,-96"/>
<text text-anchor="middle" x="996" y="-184" font-family="Times,serif" font-size="16.00">场景系统</text>
</g>
<g id="clust4" class="cluster">
<title>cluster_peripheral</title>
<polygon fill="lightgrey" stroke="lightgrey" points="467,-96 467,-202.4 803,-202.4 803,-96 467,-96"/>
<text text-anchor="middle" x="635" y="-184" font-family="Times,serif" font-size="16.00">外围系统</text>
</g>
<!-- Char_Agent -->
<g id="node1" class="node">
<title>Char_Agent</title>
<path fill="white" stroke="black" d="M294.02,-275.2C294.02,-275.2 205.98,-275.2 205.98,-275.2 199.98,-275.2 193.98,-269.2 193.98,-263.2 193.98,-263.2 193.98,-251.2 193.98,-251.2 193.98,-245.2 199.98,-239.2 205.98,-239.2 205.98,-239.2 294.02,-239.2 294.02,-239.2 300.02,-239.2 306.02,-245.2 306.02,-251.2 306.02,-251.2 306.02,-263.2 306.02,-263.2 306.02,-269.2 300.02,-275.2 294.02,-275.2"/>
<text text-anchor="middle" x="250" y="-253" font-family="Times,serif" font-size="14.00">Agent (接口, 组件)</text>
</g>
<!-- Event_Gen -->
<g id="node6" class="node">
<title>Event_Gen</title>
<path fill="white" stroke="black" d="M797.94,-275.2C797.94,-275.2 718.06,-275.2 718.06,-275.2 712.06,-275.2 706.06,-269.2 706.06,-263.2 706.06,-263.2 706.06,-251.2 706.06,-251.2 706.06,-245.2 712.06,-239.2 718.06,-239.2 718.06,-239.2 797.94,-239.2 797.94,-239.2 803.94,-239.2 809.94,-245.2 809.94,-251.2 809.94,-251.2 809.94,-263.2 809.94,-263.2 809.94,-269.2 803.94,-275.2 797.94,-275.2"/>
<text text-anchor="middle" x="758" y="-253" font-family="Times,serif" font-size="14.00">事件动态生成/加载</text>
</g>
<!-- Char_Agent&#45;&gt;Event_Gen -->
<g id="edge7" class="edge">
<title>Char_Agent-&gt;Event_Gen</title>
<path fill="none" stroke="black" d="M259.82,-275.64C270.62,-293.74 289.84,-320.26 315,-331.7 353.34,-349.13 655.73,-349.28 694,-331.7 714.85,-322.12 731.47,-302.02 742.54,-285.11"/>
<polygon fill="black" stroke="black" points="745.33,-287.26 747.61,-276.92 739.37,-283.58 745.33,-287.26"/>
<text text-anchor="middle" x="506" y="-348.3" font-family="Times,serif" font-size="9.00">参与/触发事件</text>
</g>
<!-- Char_Comm -->
<g id="node2" class="node">
<title>Char_Comm</title>
<path fill="white" stroke="black" d="M486.13,-275.2C486.13,-275.2 335.87,-275.2 335.87,-275.2 329.87,-275.2 323.87,-269.2 323.87,-263.2 323.87,-263.2 323.87,-251.2 323.87,-251.2 323.87,-245.2 329.87,-239.2 335.87,-239.2 335.87,-239.2 486.13,-239.2 486.13,-239.2 492.13,-239.2 498.13,-245.2 498.13,-251.2 498.13,-251.2 498.13,-263.2 498.13,-263.2 498.13,-269.2 492.13,-275.2 486.13,-275.2"/>
<text text-anchor="middle" x="411" y="-253" font-family="Times,serif" font-size="14.00">通信 (Shout, Dialogue, Chat)</text>
</g>
<!-- Peri_Save -->
<g id="node10" class="node">
<title>Peri_Save</title>
<path fill="white" stroke="black" d="M555.5,-140C555.5,-140 486.5,-140 486.5,-140 480.5,-140 474.5,-134 474.5,-128 474.5,-128 474.5,-116 474.5,-116 474.5,-110 480.5,-104 486.5,-104 486.5,-104 555.5,-104 555.5,-104 561.5,-104 567.5,-110 567.5,-116 567.5,-116 567.5,-128 567.5,-128 567.5,-134 561.5,-140 555.5,-140"/>
<text text-anchor="middle" x="521" y="-117.8" font-family="Times,serif" font-size="14.00">GUID存档系统</text>
</g>
<!-- Char_Comm&#45;&gt;Peri_Save -->
<g id="edge5" class="edge">
<title>Char_Comm-&gt;Peri_Save</title>
<path fill="none" stroke="black" d="M427.67,-239.16C437.62,-228.78 450.35,-215.1 461,-202.4 475.34,-185.3 490.49,-165.24 501.98,-149.56"/>
<polygon fill="black" stroke="black" points="504.68,-151.8 507.73,-141.65 499.01,-147.68 504.68,-151.8"/>
<text text-anchor="middle" x="473.41" y="-213.1" font-family="Times,serif" font-size="9.00">保存对话历史</text>
</g>
<!-- LLM_API -->
<g id="node14" class="node">
<title>LLM_API</title>
<path fill="gold" stroke="black" d="M642.02,-52C642.02,-54.87 583.74,-57.2 512,-57.2 440.26,-57.2 381.98,-54.87 381.98,-52 381.98,-52 381.98,-5.2 381.98,-5.2 381.98,-2.33 440.26,0 512,0 583.74,0 642.02,-2.33 642.02,-5.2 642.02,-5.2 642.02,-52 642.02,-52"/>
<path fill="none" stroke="black" d="M642.02,-52C642.02,-49.13 583.74,-46.8 512,-46.8 440.26,-46.8 381.98,-49.13 381.98,-52"/>
<text text-anchor="middle" x="512" y="-32.8" font-family="Times,serif" font-size="14.00">LLM API 插件</text>
<text text-anchor="middle" x="512" y="-16" font-family="Times,serif" font-size="14.00">(增强型OpenAI API: C++, 取消, Embedding)</text>
</g>
<!-- Char_Comm&#45;&gt;LLM_API -->
<g id="edge1" class="edge">
<title>Char_Comm-&gt;LLM_API</title>
<path fill="none" stroke="black" d="M406.94,-239C400.65,-208.19 391.69,-142.43 417,-96 423.77,-83.59 433.97,-73 445.21,-64.15"/>
<polygon fill="black" stroke="black" points="447.18,-67.05 453.19,-58.32 443.05,-61.4 447.18,-67.05"/>
<text text-anchor="middle" x="440" y="-119.3" font-family="Times,serif" font-size="9.00">调用LLM对话</text>
</g>
<!-- Char_Func -->
<g id="node3" class="node">
<title>Char_Func</title>
<path fill="white" stroke="black" d="M163.74,-275.2C163.74,-275.2 28.26,-275.2 28.26,-275.2 22.26,-275.2 16.26,-269.2 16.26,-263.2 16.26,-263.2 16.26,-251.2 16.26,-251.2 16.26,-245.2 22.26,-239.2 28.26,-239.2 28.26,-239.2 163.74,-239.2 163.74,-239.2 169.74,-239.2 175.74,-245.2 175.74,-251.2 175.74,-251.2 175.74,-263.2 175.74,-263.2 175.74,-269.2 169.74,-275.2 163.74,-275.2"/>
<text text-anchor="middle" x="96" y="-253" font-family="Times,serif" font-size="14.00">功能调用 (FunctionInvoke)</text>
</g>
<!-- Char_Func&#45;&gt;LLM_API -->
<g id="edge2" class="edge">
<title>Char_Func-&gt;LLM_API</title>
<path fill="none" stroke="black" d="M120.39,-238.79C164.68,-207.64 261.95,-141.38 350,-96 374,-83.63 400.84,-71.86 425.67,-61.75"/>
<polygon fill="black" stroke="black" points="426.8,-65.07 434.77,-58.09 424.18,-58.57 426.8,-65.07"/>
<text text-anchor="middle" x="373" y="-119.3" font-family="Times,serif" font-size="9.00">可能调用LLM</text>
</g>
<!-- Char_Interact -->
<g id="node4" class="node">
<title>Char_Interact</title>
<path fill="white" stroke="black" d="M584.08,-275.2C584.08,-275.2 527.92,-275.2 527.92,-275.2 521.92,-275.2 515.92,-269.2 515.92,-263.2 515.92,-263.2 515.92,-251.2 515.92,-251.2 515.92,-245.2 521.92,-239.2 527.92,-239.2 527.92,-239.2 584.08,-239.2 584.08,-239.2 590.08,-239.2 596.08,-245.2 596.08,-251.2 596.08,-251.2 596.08,-263.2 596.08,-263.2 596.08,-269.2 590.08,-275.2 584.08,-275.2"/>
<text text-anchor="middle" x="556" y="-253" font-family="Times,serif" font-size="14.00">交互物 &amp; UI</text>
</g>
<!-- Char_Narrator -->
<g id="node5" class="node">
<title>Char_Narrator</title>
<path fill="white" stroke="black" d="M670.25,-275.2C670.25,-275.2 625.75,-275.2 625.75,-275.2 619.75,-275.2 613.75,-269.2 613.75,-263.2 613.75,-263.2 613.75,-251.2 613.75,-251.2 613.75,-245.2 619.75,-239.2 625.75,-239.2 625.75,-239.2 670.25,-239.2 670.25,-239.2 676.25,-239.2 682.25,-245.2 682.25,-251.2 682.25,-251.2 682.25,-263.2 682.25,-263.2 682.25,-269.2 676.25,-275.2 670.25,-275.2"/>
<text text-anchor="middle" x="648" y="-253" font-family="Times,serif" font-size="14.00">通用叙述者</text>
</g>
<!-- Event_Trigger -->
<g id="node7" class="node">
<title>Event_Trigger</title>
<path fill="white" stroke="black" d="M1043.91,-275.2C1043.91,-275.2 948.09,-275.2 948.09,-275.2 942.09,-275.2 936.09,-269.2 936.09,-263.2 936.09,-263.2 936.09,-251.2 936.09,-251.2 936.09,-245.2 942.09,-239.2 948.09,-239.2 948.09,-239.2 1043.91,-239.2 1043.91,-239.2 1049.91,-239.2 1055.91,-245.2 1055.91,-251.2 1055.91,-251.2 1055.91,-263.2 1055.91,-263.2 1055.91,-269.2 1049.91,-275.2 1043.91,-275.2"/>
<text text-anchor="middle" x="996" y="-253" font-family="Times,serif" font-size="14.00">事件触发 (接近, 剧情)</text>
</g>
<!-- Event_Trigger&#45;&gt;Char_Agent -->
<g id="edge9" class="edge">
<title>Event_Trigger-&gt;Char_Agent</title>
<path fill="none" stroke="black" d="M985.29,-275.67C973.6,-293.8 953.01,-320.34 927,-331.7 864.69,-358.92 376.9,-359.84 315,-331.7 293.97,-322.14 277.09,-302.04 265.8,-285.13"/>
<polygon fill="black" stroke="black" points="268.92,-283.51 260.62,-276.92 263,-287.24 268.92,-283.51"/>
<text text-anchor="middle" x="725" y="-348.3" font-family="Times,serif" font-size="9.00">影响Agent</text>
</g>
<!-- Scene_Site -->
<g id="node9" class="node">
<title>Scene_Site</title>
<path fill="white" stroke="black" d="M1040.41,-140C1040.41,-140 951.59,-140 951.59,-140 945.59,-140 939.59,-134 939.59,-128 939.59,-128 939.59,-116 939.59,-116 939.59,-110 945.59,-104 951.59,-104 951.59,-104 1040.41,-104 1040.41,-104 1046.41,-104 1052.41,-110 1052.41,-116 1052.41,-116 1052.41,-128 1052.41,-128 1052.41,-134 1046.41,-140 1040.41,-140"/>
<text text-anchor="middle" x="996" y="-117.8" font-family="Times,serif" font-size="14.00">位点模块 (区域表示)</text>
</g>
<!-- Event_Trigger&#45;&gt;Scene_Site -->
<g id="edge8" class="edge">
<title>Event_Trigger-&gt;Scene_Site</title>
<path fill="none" stroke="black" d="M996,-238.79C996,-216.65 996,-178.13 996,-151.64"/>
<polygon fill="black" stroke="black" points="999.5,-151.93 996,-141.93 992.5,-151.93 999.5,-151.93"/>
<text text-anchor="middle" x="1016.25" y="-213.1" font-family="Times,serif" font-size="9.00">基于位置触发</text>
</g>
<!-- Event_Narrative -->
<g id="node8" class="node">
<title>Event_Narrative</title>
<path fill="white" stroke="black" d="M905.75,-275.2C905.75,-275.2 840.25,-275.2 840.25,-275.2 834.25,-275.2 828.25,-269.2 828.25,-263.2 828.25,-263.2 828.25,-251.2 828.25,-251.2 828.25,-245.2 834.25,-239.2 840.25,-239.2 840.25,-239.2 905.75,-239.2 905.75,-239.2 911.75,-239.2 917.75,-245.2 917.75,-251.2 917.75,-251.2 917.75,-263.2 917.75,-263.2 917.75,-269.2 911.75,-275.2 905.75,-275.2"/>
<text text-anchor="middle" x="873" y="-253" font-family="Times,serif" font-size="14.00">网状叙事子系统</text>
</g>
<!-- Event_Narrative&#45;&gt;Peri_Save -->
<g id="edge4" class="edge">
<title>Event_Narrative-&gt;Peri_Save</title>
<path fill="none" stroke="black" d="M839.63,-238.78C832.94,-235.85 825.86,-233.14 819,-231.2 714.35,-201.59 669.2,-258.45 576,-202.4 556.15,-190.46 541.71,-168.29 532.62,-150.41"/>
<polygon fill="black" stroke="black" points="535.88,-149.11 528.42,-141.59 529.56,-152.12 535.88,-149.11"/>
<text text-anchor="middle" x="632.86" y="-213.1" font-family="Times,serif" font-size="9.00">读写事件记录</text>
</g>
<!-- Event_Narrative&#45;&gt;LLM_API -->
<g id="edge3" class="edge">
<title>Event_Narrative-&gt;LLM_API</title>
<path fill="none" stroke="black" d="M871.07,-238.93C866.43,-205.85 851.49,-133.53 807,-96 782.96,-75.72 716.8,-59.88 653.21,-48.76"/>
<polygon fill="black" stroke="black" points="654.15,-45.37 643.7,-47.14 652.97,-52.27 654.15,-45.37"/>
<text text-anchor="middle" x="893.55" y="-119.3" font-family="Times,serif" font-size="9.00">调用LLM分析标签</text>
</g>
<!-- Peri_ImgGen -->
<g id="node11" class="node">
<title>Peri_ImgGen</title>
<path fill="white" stroke="black" d="M631,-140C631,-140 597,-140 597,-140 591,-140 585,-134 585,-128 585,-128 585,-116 585,-116 585,-110 591,-104 597,-104 597,-104 631,-104 631,-104 637,-104 643,-110 643,-116 643,-116 643,-128 643,-128 643,-134 637,-140 631,-140"/>
<text text-anchor="middle" x="614" y="-117.8" font-family="Times,serif" font-size="14.00">生图模块</text>
</g>
<!-- Peri_ImgGen&#45;&gt;LLM_API -->
<g id="edge6" class="edge">
<title>Peri_ImgGen-&gt;LLM_API</title>
<path fill="none" stroke="black" d="M594.81,-103.81C582.66,-92.91 566.49,-78.42 551.66,-65.14"/>
<polygon fill="black" stroke="black" points="554.04,-62.57 544.25,-58.5 549.37,-67.78 554.04,-62.57"/>
<text text-anchor="middle" x="599.64" y="-77.9" font-family="Times,serif" font-size="9.00">调用图像生成API</text>
</g>
<!-- Peri_Net -->
<g id="node12" class="node">
<title>Peri_Net</title>
<path fill="white" stroke="black" d="M707,-140C707,-140 673,-140 673,-140 667,-140 661,-134 661,-128 661,-128 661,-116 661,-116 661,-110 667,-104 673,-104 673,-104 707,-104 707,-104 713,-104 719,-110 719,-116 719,-116 719,-128 719,-128 719,-134 713,-140 707,-140"/>
<text text-anchor="middle" x="690" y="-117.8" font-family="Times,serif" font-size="14.00">网络配置</text>
</g>
<!-- Peri_Lang -->
<g id="node13" class="node">
<title>Peri_Lang</title>
<path fill="white" stroke="black" d="M783,-140C783,-140 749,-140 749,-140 743,-140 737,-134 737,-128 737,-128 737,-116 737,-116 737,-110 743,-104 749,-104 749,-104 783,-104 783,-104 789,-104 795,-110 795,-116 795,-116 795,-128 795,-128 795,-134 789,-140 783,-140"/>
<text text-anchor="middle" x="766" y="-117.8" font-family="Times,serif" font-size="14.00">语言配置</text>
</g>
<!-- UE5 -->
<g id="node15" class="node">
<title>UE5</title>
<polygon fill="grey" stroke="black" points="1181.87,-275.2 1078.13,-275.2 1074.13,-271.2 1074.13,-239.2 1177.87,-239.2 1181.87,-243.2 1181.87,-275.2"/>
<polyline fill="none" stroke="black" points="1177.87,-271.2 1074.13,-271.2"/>
<polyline fill="none" stroke="black" points="1177.87,-271.2 1177.87,-239.2"/>
<polyline fill="none" stroke="black" points="1177.87,-271.2 1181.87,-275.2"/>
<text text-anchor="middle" x="1128" y="-253" font-family="Times,serif" font-size="14.00">Unreal Engine 5</text>
</g>
</g>
</svg>
